dist/images/icon/twitter.svg

<svg width="35" height="35" viewBox="0 0 35 35" fill="none" xmlns="http://www.w3.org/2000/svg">
<path d="M27.9971 11.7036C27.2241 12.055 26.391 12.2859 25.5277 12.3963C26.411 11.8643 27.0936 11.021 27.4149 10.007C26.5817 10.509 25.6582 10.8603 24.6845 11.0611C23.8914 10.1978 22.7772 9.6958 21.5124 9.6958C19.1534 9.6958 17.226 11.6233 17.226 14.0026C17.226 14.3439 17.2662 14.6752 17.3365 14.9864C13.7628 14.8057 10.5807 13.089 8.46265 10.4889C8.09124 11.1214 7.88044 11.8643 7.88044 12.6473C7.88044 14.1431 8.6333 15.4683 9.79774 16.2212C9.08502 16.2212 8.4225 16.0205 7.84028 15.7193V15.7494C7.84028 17.8376 9.32594 19.5844 11.2934 19.9759C10.6618 20.1488 9.9986 20.1728 9.35606 20.0462C9.6287 20.902 10.1627 21.6508 10.8829 22.1874C11.6031 22.7241 12.4734 23.0215 13.3714 23.0378C11.8492 24.243 9.96236 24.8944 8.02097 24.885C7.67967 24.885 7.33837 24.865 6.99707 24.8248C8.90434 26.0496 11.173 26.7624 13.6022 26.7624C21.5124 26.7624 25.8589 20.1968 25.8589 14.5046C25.8589 14.3138 25.8589 14.1331 25.8489 13.9424C26.6921 13.34 27.4149 12.577 27.9971 11.7036Z" fill="#202020"/>
<rect x="0.5" y="0.5" width="34" height="34" rx="6.5" stroke="#202020"/>
</svg>

<svg width="35" height="35" fill="none" xmlns="http://www.w3.org/2000/svg"><path d="M27.997 11.704a8.598 8.598 0 01-2.47.692 4.316 4.316 0 001.888-2.389 8.673 8.673 0 01-2.73 1.054c-.794-.863-1.908-1.365-3.173-1.365-2.359 0-4.286 1.927-4.286 4.307 0 .34.04.672.11.983a12.24 12.24 0 01-8.873-4.497 4.261 4.261 0 00-.583 2.158c0 1.496.753 2.821 1.918 3.574-.713 0-1.376-.2-1.958-.502v.03a4.31 4.31 0 003.453 4.227 4.236 4.236 0 01-1.937.07 4.297 4.297 0 004.015 2.992 8.553 8.553 0 01-5.35 1.847 8.79 8.79 0 01-1.024-.06 12.19 12.19 0 006.605 1.937c7.91 0 12.257-6.565 12.257-12.257 0-.191 0-.372-.01-.563a8.606 8.606 0 002.148-2.238z" fill="#202020"/><rect x=".5" y=".5" width="34" height="34" rx="6.5" stroke="#202020"/></svg>
